X:795
T: South of the Shannon
C: BB
R: jig
Q: 1/8=320
M: 6/8
L: 1/8
K: A
e|"A"ecA EAc | "E7"dBG EFG | "F#m"AFA "D"dcd | "A"ecA "E7"Bcd |
"A"ecA EAc | "E7"dBG EFG | "A"ABc "D"dfe | "E7"dBG "A"A2 :|
e|"E7"edB bge | "A"aga "A"ecA | "F#m"FAc "D"dfa | "A"ecA "E7"Bcd |
"A"cAc "Bm"dBd | "A"ece "D"agf | "A"ece "Bm"fdB |"E"GAB "A"A2 :|
%%%%%%%%%%%%%%%%%%%%%%%%%%%%%%%%%%%%%%%%%%%
